storage/app/icons/phosphoricons/bold/grid-nine-bold.svg

<svg xmlns="http://www.w3.org/2000/svg" fill="currentColor" viewBox="0 0 256 256"><path d="M216 44H40a20 20 0 0 0-20 20v128a20 20 0 0 0 20 20h176a20 20 0 0 0 20-20V64a20 20 0 0 0-20-20m-108 96v-24h40v24Zm40 24v24h-40v-24ZM44 116h40v24H44Zm64-24V68h40v24Zm64 24h40v24h-40Zm40-24h-40V68h40ZM84 68v24H44V68Zm-40 96h40v24H44Zm128 24v-24h40v24Z"/></svg>

<svg xmlns="http://www.w3.org/2000/svg" viewBox="0 0 256 256" fill="currentColor"><path d="M216,44H40A20,20,0,0,0,20,64V192a20,20,0,0,0,20,20H216a20,20,0,0,0,20-20V64A20,20,0,0,0,216,44ZM108,140V116h40v24Zm40,24v24H108V164ZM44,116H84v24H44Zm64-24V68h40V92Zm64,24h40v24H172Zm40-24H172V68h40ZM84,68V92H44V68ZM44,164H84v24H44Zm128,24V164h40v24Z"/></svg>
